X: 18352
T: Humours Of Whiskey, The
R: slip jig
M: 9/8
K: Eminor
BcA BEE BEE|BcA BGE FED|BcA BGE BGE|F2A ABG FED:|
G2A BcA BcA|G2A Bcd ecA|G2A BcA Bcd|ecA ABG FED:|

